X:1
T:Title
%%score ( 1 2 3 ) { 4 | 5 }
L:1/8
Q:1/4=110
M:4/4
K:Ab
V:1 treble nm="Grand Piano, Soprano"
V:2 treble 
V:3 treble 
V:4 treble nm="Choir Pad, Clyde, Arthur S. Sullivan"
V:5 bass 
V:1
 [EA]2 [EG]2 [EB]2 A2 | [Ad]2 [_Gc]2 B2 z E | [=DB]2 [EG]2 [EA]2 [DF]2 | E8 | %4
w: By~Arthur~Seymour~Sullivan~(1842\-1900) * * *||||
 [Ae]2 [Gd]2 [Ac]2 [GB]2 | A2 [EG]2 [EF]2 [DA]2 | [CE]4 [EG]4 | [EA]8 |] %8
w: ||||
V:2
 x8 | z4 z2 A2 | x8 | x8 | x8 | x8 | x8 | x8 |] %8
V:3
 x8 | z4 F4 | x8 | x8 | x8 | x8 | x8 | x8 |] %8
V:4
 C2 B,2 D2 C2 | F2 E2 D2 C2 | B,2 B,2 F,2 A,2 | G,8 | E2 E2 E2 D2 | C2 A,2 A,2 B,2 | C4 D4 | C8 |] %8
V:5
 A,2 A,2 A,2 A,2 | D,2 E,2 F,2 F,2 | B,,2 B,,2 B,,2 B,,2 | E,8 | C2 B,2 A,2 E,2 | %5
 F,2 C,2 D,2 B,,2 | E,4 E,4 | A,,8 |] %8

